X: 3
T: Lauda Sion salvatorem / Ego sum panis
N: Derived from Reg2005-Lauda_Sion_salvatorem__Ego_sum_panis.krn
C: Johannes Regis
%%abc-version 2.0
%%abcx-abcm2ps-target-version 5.9.1 (29 Sep 2008)
%%abc-creator hum2abc beta
%%abcx-conversion-date 2019/02/17 07:31:25
%%abc-edited-by Jesse Rodin
%%abc-edited-by Jesse Rodin 8/13/2013
%%abcx-initial-encoding-date 2013/08/13/
%%humdrum-veritas 949612608
%%humdrum-veritas-data 4216467582
%%linebreak <none>
%%barnumbers 0
L: 1/4
M: 3/1
Q: 1/2=120
V: 1 clef=treble
V: 2 clef=treble-8
V: 3 clef=treble-8
V: 4 clef=bass
V: 5 clef=bass
K: C
[V:1] D4D4F4 | 
[V:2] d8d4 | 
[V:3] z12 | 
[V:4] D,8D,4 | 
[V:5] z12 | 
[V:1] E4C2D2E4 | 
[V:2] c4A2B2c4 | 
[V:3] z12 | 
[V:4] A,6G,F,E,4 | 
[V:5] z12 | 
[V:1] F2D4E4F2- | 
[V:2] d3cB2A2c4 | 
[V:3] z12 | 
[V:4] D,4z2A,3G,F,E, | 
[V:5] z12 | 
[V:1] F2G2A2F2E4 | 
[V:2] d2e3dd4^c2 | 
[V:3] z12 | 
[V:4] D,2C,2F,3G,A,4 | 
[V:5] z12 | 
[V:1] D4z4F4 | 
[V:2] d8d4 | 
[V:3] z12 | 
[V:4] D,2G,3A,_B,4A,G, | 
[V:5] z12 | 
[V:1] F4E4D4 | 
[V:2] d4c4d3c/B/ | 
[V:3] z12 | 
[V:4] F,2D,2A,4D,4- | 
[V:5] z12 | 
[V:1] F4E4D2E2- | 
[V:2] A2d3cc2B2G2 | 
[V:3] z12 | 
[V:4] D,4z4z4 | 
[V:5] z12 | 
[V:1] EDD2E2C2B,4 | 
[V:2] A2GFE2A4^G2 | 
[V:3] z12 | 
[V:4] z12 | 
[V:5] z12 | 
[V:1] A,8z2A,2 | 
[V:2] A4z2A2c3d | 
[V:3] z12 | 
[V:4] z12 | 
[V:5] z12 | 
[V:1] C3DE2F2E2A2- | 
[V:2] e2f2e2d3cc2 | 
[V:3] z12 | 
[V:4] z12 | 
[V:5] z12 | 
[V:1] AGF2E2G3FED | 
[V:2] B2d3cB2A2G2 | 
[V:3] z12 | 
[V:4] z12 | 
[V:5] z12 | 
[V:1] F2E4D3^CC2 | 
[V:2] A4F2D2E4 | 
[V:3] z12 | 
[V:4] z12 | 
[V:5] z12 | 
[V:1] D4z4D4 | 
[V:2] D8z4 | 
[V:3] D12- | 
[V:4] A,8A,4 | 
[V:5] D,,12- | 
[V:1] F4D2F4G2 | 
[V:2] D4F3GA4 | 
[V:3] D12 | 
[V:4] A,12- | 
[V:5] D,,12 | 
[V:1] A4D4z4 | 
[V:2] A4B8 | 
[V:3] F12 | 
[V:4] A,4F,8 | 
[V:5] D,12 | 
[V:1] E6F2G4- | 
[V:2] c8G4- | 
[V:3] E12 | 
[V:4] G,8E,4 | 
[V:5] C,12 | 
[V:1] G2FED6C2 | 
[V:2] G12 | 
[V:3] D12 | 
[V:4] z12 | 
[V:5] B,,12 | 
[V:1] E4A,2C3DE2 | 
[V:2] A8z4 | 
[V:3] C12 | 
[V:4] E,6A,4G,2 | 
[V:5] A,,8C,4 | 
[V:1] F2D2E2^C4B,C | 
[V:2] A12- | 
[V:3] F4E8 | 
[V:4] F,2A,4G,F,E,4 | 
[V:5] D,4A,,8 | 
[V:1] D8z4 | 
[V:2] A4F6G2 | 
[V:3] D12 | 
[V:4] F,6G,2A,4 | 
[V:5] D,,8z4 | 
[V:1] F4F4G4 | 
[V:2] A6d4^c2 | 
[V:3] z12 | 
[V:4] D,4z4G,4 | 
[V:5] D,,4D,4E,4 | 
[V:1] A4F4D2E2 | 
[V:2] d8B4 | 
[V:3] F8G4 | 
[V:4] F,6D,4G,2 | 
[V:5] D,8G,,4 | 
[V:1] F4G4E4 | 
[V:2] A2d2c2B2c2G2 | 
[V:3] A4G4c4- | 
[V:4] F,2A,2E,2G,3F,E,D, | 
[V:5] D,4E,4C,4 | 
[V:1] A6^G2G2^F2 | 
[V:2] A2e4e2e4- | 
[V:3] c4B8 | 
[V:4] E,4z4E,4 | 
[V:5] A,,4E,8 | 
[V:1] A4z2E4F2- | 
[V:2] e4e4c4- | 
[V:3] A8z4 | 
[V:4] C,6D,2E,4 | 
[V:5] A,,12- | 
[V:1] FEC2D4C2E2- | 
[V:2] c4B4c4- | 
[V:3] F4G4A4 | 
[V:4] z2A,,2D,4E,4 | 
[V:5] A,,4B,,4A,,4 | 
[V:1] E2D4C2D2F2- | 
[V:2] c2A6A4 | 
[V:3] G2F2E4D2A2- | 
[V:4] z12 | 
[V:5] C,2D,2A,,4D,,4 | 
[V:1] F2E4D4^C2 | 
[V:2] z4A4A4 | 
[V:3] A2G2A2F2E4 | 
[V:4] z4z4E,4 | 
[V:5] A,,2C,2A,,2D,2A,,4 | 
[V:1] D8z4 | 
[V:2] A12- | 
[V:3] D12 | 
[V:4] F,6G,2A,4 | 
[V:5] D,,12- | 
[V:1] D8F4 | 
[V:2] A4F8 | 
[V:3] z12 | 
[V:4] D,12 | 
[V:5] D,,12 | 
[V:1] F4E4D4 | 
[V:2] A4c4B4 | 
[V:3] z12 | 
[V:4] z12 | 
[V:5] z12 | 
[V:1] C2D2B,2G,2A,4 | 
[V:2] A2F2D2G4^F2 | 
[V:3] z12 | 
[V:4] z12 | 
[V:5] z12 | 
[V:1] G,4B,2C2D2E2 | 
[V:2] G4G2A2B2G2 | 
[V:3] z12 | 
[V:4] z12 | 
[V:5] z12 | 
[V:1] F2E4D4^C2 | 
[V:2] A2G4F2E4 | 
[V:3] z12 | 
[V:4] z12 | 
[V:5] z12 | 
[V:1] D4z4F4 | 
[V:2] D8z4 | 
[V:3] A12 | 
[V:4] F,8F,4 | 
[V:5] D,12 | 
[V:1] E4C2E3DD2- | 
[V:2] E8G4 | 
[V:3] c8B4 | 
[V:4] G,12 | 
[V:5] C,8G,,4- | 
[V:1] D2G4^F2F2E2 | 
[V:2] d8d4 | 
[V:3] G4A8 | 
[V:4] z4z4D,4 | 
[V:5] G,,4D,8 | 
[V:1] G12 | 
[V:2] B8d4 | 
[V:3] G8z4 | 
[V:4] D,4G,6F,2 | 
[V:5] G,,12 | 
[V:1] z12 | 
[V:2] c4d4c2A2- | 
[V:3] G4B4A2d2- | 
[V:4] E,4D,2G,2A,2F,2 | 
[V:5] z12 | 
[V:1] z12 | 
[V:2] A2G2A4F2A2 | 
[V:3] d2c2d3cBAd2 | 
[V:4] E,4D,6F,2 | 
[V:5] z12 | 
[V:1] z12 | 
[V:2] G2F3EE4D2 | 
[V:3] c2B4A4^G2 | 
[V:4] E,2D,2E,2C,2B,,4 | 
[V:5] z12 | 
[V:1] z12 | 
[V:2] E8z4 | 
[V:3] A12 | 
[V:4] A,,2C,3D,E,2F,4 | 
[V:5] A,,8D,4 | 
[V:1] z12 | 
[V:2] z12 | 
[V:3] z12 | 
[V:4] E,4F,2D,2E,2G,2 | 
[V:5] C,4D,3C,A,,2B,,2 | 
[V:1] z12 | 
[V:2] z12 | 
[V:3] z12 | 
[V:4] F,2E,3D,D,4^C,2 | 
[V:5] A,,2G,,2A,,2F,,2E,,4 | 
[V:1] D8F4 | 
[V:2] A12 | 
[V:3] z12 | 
[V:4] D,12 | 
[V:5] D,,12 | 
[V:1] E4D4z4 | 
[V:2] G4B4A4 | 
[V:3] z12 | 
[V:4] z12 | 
[V:5] z12 | 
[V:1] G4F2D2E4 | 
[V:2] G4z4c4 | 
[V:3] z12 | 
[V:4] z12 | 
[V:5] z12 | 
[V:1] D4z4E4 | 
[V:2] B2G2A2GFE4 | 
[V:3] z12 | 
[V:4] z12 | 
[V:5] z12 | 
[V:1] F4E4D4 | 
[V:2] D2A4G2F2D2 | 
[V:3] z12 | 
[V:4] z12 | 
[V:5] z12 | 
[V:1] A,2B,2A,2D4^C2 | 
[V:2] F2G2D2F2E4 | 
[V:3] z12 | 
[V:4] z12 | 
[V:5] z12 | 
[V:1] D4z4F4 | 
[V:2] D12 | 
[V:3] d12 | 
[V:4] A,6G,2F,4 | 
[V:5] D,,12 | 
[V:1] G4E2G3FED | 
[V:2] z12 | 
[V:3] G12 | 
[V:4] E,8G,4 | 
[V:5] E,,12 | 
[V:1] D4A,2C4B,2 | 
[V:2] A4c4G4 | 
[V:3] A8D4 | 
[V:4] F,4A,4G,4 | 
[V:5] F,,8G,,4 | 
[V:1] A,2D2E2^C4B,2 | 
[V:2] A12 | 
[V:3] F4E8 | 
[V:4] z12 | 
[V:5] D,,4A,,8 | 
[V:1] D8D4 | 
[V:2] F8G4 | 
[V:3] D12 | 
[V:4] z4D,4B,,4 | 
[V:5] _B,,8G,,4 | 
[V:1] C4D2B,2A,4 | 
[V:2] A4B4c4 | 
[V:3] E4D2G4^F2 | 
[V:4] A,,4D,2D,4C,2 | 
[V:5] C,4B,,2G,,2A,,4 | 
[V:1] z4D8 | 
[V:2] B12 | 
[V:3] G8G4 | 
[V:4] D,8D,4 | 
[V:5] G,,8G,,4 | 
[V:1] C4D4E4 | 
[V:2] A4B4G4 | 
[V:3] c4B6A2 | 
[V:4] F,4G,8 | 
[V:5] A,,4G,,4C,4- | 
[V:1] C4D4D4 | 
[V:2] z12 | 
[V:3] A6^G2^G2^F2 | 
[V:4] E,4D,8 | 
[V:5] C,4B,,8 | 
[V:1] C6D2E4 | 
[V:2] A6B2c4 | 
[V:3] A12 | 
[V:4] E,12 | 
[V:5] A,,12 | 
[V:1] F6A3GF2 | 
[V:2] d8A2d2- | 
[V:3] z12 | 
[V:4] D,12 | 
[V:5] D,,12 | 
[V:1] E2D2E2G2F2E2- | 
[V:2] dcB2A2G2A4 | 
[V:3] z12 | 
[V:4] z12 | 
[V:5] z12 | 
[V:1] EDC2B,2E4D2 | 
[V:2] E2A2G2E2F4 | 
[V:3] z12 | 
[V:4] z12 | 
[V:5] z12 | 
[V:1] E4z4A4 | 
[V:2] E8z4 | 
[V:3] E12 | 
[V:4] z12 | 
[V:5] A,,12 | 
[V:1] A6G2F4 | 
[V:2] z4A4B4 | 
[V:3] F12 | 
[V:4] z12 | 
[V:5] D,12 | 
[V:1] E4C2E2F2D2- | 
[V:2] c8A4 | 
[V:3] G8F4 | 
[V:4] E,8D,2F,2 | 
[V:5] C,8D,4 | 
[V:1] DCD2E2DCB,2E2 | 
[V:2] B2A2c4z2G2 | 
[V:3] D2F2E2A3GG2 | 
[V:4] G,2z2E,3F,G,4 | 
[V:5] G,,2D,2C,2A,,2E,4 | 
[V:1] F2E3DD4^C2 | 
[V:2] A2c4A4A2 | 
[V:3] F2G4F2E4 | 
[V:4] D,2E,2z4E,4 | 
[V:5] D,2C,4D,2A,,4 | 
[V:1] D12- | 
[V:2] A12- | 
[V:3] D12- | 
[V:4] F,6G,2A,4 | 
[V:5] D,,12- | 
[V:1] D12 ||  
[V:2] A12 ||  
[V:3] D12 ||  
[V:4] ^F,12 ||  
[V:5] D,,12 ||  
[V:1]  [K:C] [K:clef=treble][M:2/1]E8 | 
[V:2]  [K:C] [K:clef=treble-8][M:2/1]A8 | 
[V:3]  [K:C] [K:clef=treble-8][M:2/1]z8 | 
[V:4]  [K:C] [K:clef=bass][M:2/1]E,8 | 
[V:5]  [K:C] [K:clef=bass][M:2/1]A,,8 | 
[V:1] C4D4 | 
[V:2] A4B4 | 
[V:3] z8 | 
[V:4] E,4F,4 | 
[V:5] A,,4D,4 | 
[V:1] E4G4 | 
[V:2] c4c4 | 
[V:3] z8 | 
[V:4] G,4E,4 | 
[V:5] C,4C,4 | 
[V:1] F2E2D4 | 
[V:2] A4A4 | 
[V:3] z8 | 
[V:4] F,4F,4 | 
[V:5] D,4D,4 | 
[V:1] C8 | 
[V:2] A8 | 
[V:3] z8 | 
[V:4] E,8 | 
[V:5] A,,8 | 
[V:1] z4C4 | 
[V:2] A4A4 | 
[V:3] z8 | 
[V:4] A,,8 | 
[V:5] z8 | 
[V:1] D4F4 | 
[V:2] B4d4 | 
[V:3] z8 | 
[V:4] z8 | 
[V:5] z8 | 
[V:1] E4E4 | 
[V:2] c6BA | 
[V:3] z8 | 
[V:4] E,8 | 
[V:5] A,,8 | 
[V:1] G4F4 | 
[V:2] G4A4 | 
[V:3] z8 | 
[V:4] E,4F,4 | 
[V:5] E,4D,4 | 
[V:1] E2C2D4 | 
[V:2] c4B4 | 
[V:3] z8 | 
[V:4] C,4F,4 | 
[V:5] A,,4D,4 | 
[V:1] E4z4 | 
[V:2] A2A4^G2 | 
[V:3] z8 | 
[V:4] E,2C,2D,4 | 
[V:5] C,2A,,2B,,4 | 
[V:1] C8 | 
[V:2] A8- | 
[V:3] z8 | 
[V:4] E,8- | 
[V:5] A,,8 | 
[V:1] A,4C4 | 
[V:2] A8 | 
[V:3] z8 | 
[V:4] E,8 | 
[V:5] A,,8 | 
[V:1] D4F4 | 
[V:2] z8 | 
[V:3] z8 | 
[V:4] F,4A,4 | 
[V:5] D,,8 | 
[V:1] E4D2F2 | 
[V:2] A4A4 | 
[V:3] z8 | 
[V:4] E,4F,2A,2- | 
[V:5] A,,4D,4 | 
[V:1] E2D4^C2 | 
[V:2] A4A4 | 
[V:3] z8 | 
[V:4] A,G,F,2E,4 | 
[V:5] C,2D,2A,,4 | 
[V:1] D8 | 
[V:2] A4A4 | 
[V:3] z8 | 
[V:4] D,8- | 
[V:5] D,,8- | 
[V:1] z8 | 
[V:2] A8 | 
[V:3] z8 | 
[V:4] D,8 | 
[V:5] D,,8- | 
[V:1] A,8 | 
[V:2] z8 | 
[V:3] z8 | 
[V:4] F,6G,2 | 
[V:5] D,,8- | 
[V:1] A,4B,4 | 
[V:2] z8 | 
[V:3] z8 | 
[V:4] A,4D,4 | 
[V:5] D,,8 | 
[V:1] C6B,C | 
[V:2] A8 | 
[V:3] z8 | 
[V:4] z8 | 
[V:5] z8 | 
[V:1] D8 | 
[V:2] B4d4 | 
[V:3] z8 | 
[V:4] z8 | 
[V:5] z8 | 
[V:1] z4E4 | 
[V:2] c6Bc | 
[V:3] z8 | 
[V:4] z8 | 
[V:5] z8 | 
[V:1] F4G4 | 
[V:2] d4B2c2- | 
[V:3] z8 | 
[V:4] z8 | 
[V:5] z8 | 
[V:1] A4E2G2 | 
[V:2] c2A4B2 | 
[V:3] z8 | 
[V:4] z8 | 
[V:5] z8 | 
[V:1] F2E3DC2 | 
[V:2] A2c3BA2 | 
[V:3] z8 | 
[V:4] z8 | 
[V:5] z8 | 
[V:1] B,2A,2D4- | 
[V:2] G2A2F2G2- | 
[V:3] z8 | 
[V:4] z8 | 
[V:5] z8 | 
[V:1] D2^C2C2B,2 | 
[V:2] GFEDE4 | 
[V:3] z8 | 
[V:4] z8 | 
[V:5] z8 | 
[V:1] D8 | 
[V:2] D4z4 | 
[V:3] A8- | 
[V:4] D,8 | 
[V:5] D,,8- | 
[V:1] z8 | 
[V:2] d8 | 
[V:3] A8- | 
[V:4] F,8 | 
[V:5] D,,8 | 
[V:1] E8 | 
[V:2] c8- | 
[V:3] A8- | 
[V:4] E,8- | 
[V:5] A,,8- | 
[V:1] E8 | 
[V:2] c8 | 
[V:3] A8 | 
[V:4] E,8 | 
[V:5] A,,8 | 
[V:1] F6ED | 
[V:2] d8 | 
[V:3] A6GF | 
[V:4] D,8 | 
[V:5] D,,8 | 
[V:1] E2F2G4 | 
[V:2] c4d4 | 
[V:3] E4D4 | 
[V:4] z8 | 
[V:5] A,,4B,,4 | 
[V:1] A8 | 
[V:2] c4f4- | 
[V:3] E4F4- | 
[V:4] A,8- | 
[V:5] A,,4D,4- | 
[V:1] z4D4 | 
[V:2] f2e2d4 | 
[V:3] F2A4^G2 | 
[V:4] A,4B,4 | 
[V:5] D,2C,2B,,4 | 
[V:1] E4F4- | 
[V:2] c4d4- | 
[V:3] A8- | 
[V:4] C4A,4- | 
[V:5] A,,4D,,4 | 
[V:1] F2E2F4 | 
[V:2] d2c2A4 | 
[V:3] A8 | 
[V:4] A,2G,2F,4 | 
[V:5] z4D,4 | 
[V:1] G4E4- | 
[V:2] z8 | 
[V:3] G4c4- | 
[V:4] E,8 | 
[V:5] E,4C,4 | 
[V:1] E2D2D4 | 
[V:2] z8 | 
[V:3] c2B2B4- | 
[V:4] F,8 | 
[V:5] D,8 | 
[V:1] E4C4 | 
[V:2] z8 | 
[V:3] B2A2A4- | 
[V:4] E,8 | 
[V:5] A,,8 | 
[V:1] B,8 | 
[V:2] e8 | 
[V:3] A4^G4 | 
[V:4] z4E,4 | 
[V:5] E,8 | 
[V:1] A,8 | 
[V:2] c6d2 | 
[V:3] A8 | 
[V:4] E,8 | 
[V:5] A,,8 | 
[V:1] z4A,4 | 
[V:2] e8 | 
[V:3] z8 | 
[V:4] A,,8 | 
[V:5] z8 | 
[V:1] C6D2 | 
[V:2] A8- | 
[V:3] z8 | 
[V:4] z4A,,4- | 
[V:5] z8 | 
[V:1] E2F2G4- | 
[V:2] A4B4 | 
[V:3] z8 | 
[V:4] A,,4G,,4 | 
[V:5] z8 | 
[V:1] G2F2F4 | 
[V:2] A4d4 | 
[V:3] z8 | 
[V:4] D,8 | 
[V:5] z8 | 
[V:1] E4A4- | 
[V:2] c4A4 | 
[V:3] z8 | 
[V:4] A,,8 | 
[V:5] z8 | 
[V:1] A4^G4 | 
[V:2] B8 | 
[V:3] z8 | 
[V:4] E,8 | 
[V:5] z8 | 
[V:1] A8 | 
[V:2] A8 | 
[V:3] D8 | 
[V:4] F,8 | 
[V:5] z8 | 
[V:1] z8 | 
[V:2] z8 | 
[V:3] F6G2 | 
[V:4] D,4F,4 | 
[V:5] D,8 | 
[V:1] z8 | 
[V:2] z8 | 
[V:3] A4G4 | 
[V:4] E,6D,2 | 
[V:5] C,6B,,2 | 
[V:1] z8 | 
[V:2] z8 | 
[V:3] F4E4- | 
[V:4] C,8 | 
[V:5] A,,8 | 
[V:1] z8 | 
[V:2] z8 | 
[V:3] E2D2D4- | 
[V:4] B,,4A,,4- | 
[V:5] G,,4F,,4 | 
[V:1] z8 | 
[V:2] z8 | 
[V:3] D4^C4 | 
[V:4] A,,4G,,4 | 
[V:5] E,,8 | 
[V:1] D8 | 
[V:2] A8- | 
[V:3] D8- | 
[V:4] A,,8 | 
[V:5] D,,8- | 
[V:1] D8 | 
[V:2] A8 | 
[V:3] D8 | 
[V:4] z8 | 
[V:5] D,,8 | 
[V:1] F8 | 
[V:2] A8 | 
[V:3] z8 | 
[V:4] D,8 | 
[V:5] z8 | 
[V:1] E4D4 | 
[V:2] c4B4 | 
[V:3] z8 | 
[V:4] C,4G,4 | 
[V:5] z8 | 
[V:1] z4F4 | 
[V:2] A4z4 | 
[V:3] z8 | 
[V:4] F,2F,4E,D, | 
[V:5] z8 | 
[V:1] E2G3FF2 | 
[V:2] c4A2d2- | 
[V:3] z8 | 
[V:4] C,4D,4 | 
[V:5] z8 | 
[V:1] E2A3GE2 | 
[V:2] dcc2B2c2 | 
[V:3] z8 | 
[V:4] A,,4z2A,,2 | 
[V:5] z8 | 
[V:1] D2G4^F2 | 
[V:2] G2B2A4 | 
[V:3] z8 | 
[V:4] B,,2G,,2D,4 | 
[V:5] z8 | 
[V:1] G8 | 
[V:2] G8 | 
[V:3] G6A2 | 
[V:4] D,8 | 
[V:5] G,,8- | 
[V:1] z4E4 | 
[V:2] d4c4 | 
[V:3] B4c4 | 
[V:4] D,4A,4- | 
[V:5] G,,4A,,4 | 
[V:1] D4G4- | 
[V:2] d4B4 | 
[V:3] B4d4 | 
[V:4] A,2G,2G,4 | 
[V:5] B,,4G,,4 | 
[V:1] G2F2E4 | 
[V:2] c8 | 
[V:3] c4A4- | 
[V:4] E,4C,4 | 
[V:5] A,,4C,4 | 
[V:1] D8 | 
[V:2] z4d4 | 
[V:3] A4^G4 | 
[V:4] z8 | 
[V:5] B,,8 | 
[V:1] C4E4 | 
[V:2] e4c4 | 
[V:3] A8 | 
[V:4] E,8 | 
[V:5] A,,8 | 
[V:1] D6G2- | 
[V:2] B8- | 
[V:3] d6c2 | 
[V:4] G,8- | 
[V:5] B,,4G,,4- | 
[V:1] G2F2E4- | 
[V:2] B4G4 | 
[V:3] d4e4 | 
[V:4] G,8 | 
[V:5] G,,4C,4 | 
[V:1] E4D4 | 
[V:2] A2c2B2d2 | 
[V:3] c4d4 | 
[V:4] A,4D,4 | 
[V:5] A,,4B,,4 | 
[V:1] E4F4 | 
[V:2] c6d2 | 
[V:3] A8 | 
[V:4] z8 | 
[V:5] A,,2A,,3G,,F,,2 | 
[V:1] G4F2A2- | 
[V:2] e4f4- | 
[V:3] G4A4 | 
[V:4] C,4D,4- | 
[V:5] E,,4D,,4 | 
[V:1] A2G2E4- | 
[V:2] f2e2c4- | 
[V:3] F4A4- | 
[V:4] D,4E,4 | 
[V:5] z4A,,4 | 
[V:1] E2D2D4- | 
[V:2] c4A4- | 
[V:3] A2G2F4 | 
[V:4] C,2E,2F,2A,2- | 
[V:5] C,4D,4 | 
[V:1] D4^C4 | 
[V:2] A4A4 | 
[V:3] E8 | 
[V:4] A,2G,2E,4 | 
[V:5] A,,8 | 
[V:1] D8 | 
[V:2] A4A4 | 
[V:3] D8- | 
[V:4] F,4D,4 | 
[V:5] D,,8- | 
[V:1] z4D4 | 
[V:2] A8 | 
[V:3] D8 | 
[V:4] F,6G,2 | 
[V:5] D,,8- | 
[V:1] F6G2 | 
[V:2] z8 | 
[V:3] z8 | 
[V:4] A,4D,4 | 
[V:5] D,,8 | 
[V:1] A4D4 | 
[V:2] z8 | 
[V:3] z8 | 
[V:4] z4G,4 | 
[V:5] z8 | 
[V:1] z4G4 | 
[V:2] z8 | 
[V:3] z8 | 
[V:4] F,4E,4 | 
[V:5] z8 | 
[V:1] F4E4 | 
[V:2] z8 | 
[V:3] z8 | 
[V:4] D,4G,4- | 
[V:5] z8 | 
[V:1] D4G4- | 
[V:2] z8 | 
[V:3] z8 | 
[V:4] G,2F,2E,4 | 
[V:5] z8 | 
[V:1] G2F2E4 | 
[V:2] z8 | 
[V:3] z8 | 
[V:4] D,4C,4 | 
[V:5] z8 | 
[V:1] D4C4 | 
[V:2] z8 | 
[V:3] z8 | 
[V:4] F,4E,4 | 
[V:5] z8 | 
[V:1] F4E4 | 
[V:2] z8 | 
[V:3] z8 | 
[V:4] D,4z2A,,2 | 
[V:5] z8 | 
[V:1] D4A,2B,2 | 
[V:2] z8 | 
[V:3] z8 | 
[V:4] B,,2D,3C,D,2 | 
[V:5] z8 | 
[V:1] A,2C2D2F2- | 
[V:2] z8 | 
[V:3] z8 | 
[V:4] F,2E,2D,2A,2- | 
[V:5] z8 | 
[V:1] F2E2D2F2- | 
[V:2] z8 | 
[V:3] z8 | 
[V:4] A,2G,2F,2D,2 | 
[V:5] z8 | 
[V:1] FED3^CC2 | 
[V:2] z8 | 
[V:3] z8 | 
[V:4] F,2G,2E,4 | 
[V:5] z8 | 
[V:1] D8- | 
[V:2] A8- | 
[V:3] D8- | 
[V:4] D,8 | 
[V:5] D,,8- | 
[V:1] D8 | 
[V:2] A8 | 
[V:3] D8 | 
[V:4] F,6G,2 | 
[V:5] D,,8 | 
[V:1] z8 | 
[V:2] A8 | 
[V:3] F8 | 
[V:4] A,4D,4 | 
[V:5] D,8 | 
[V:1] D8 | 
[V:2] B4d4 | 
[V:3] G8 | 
[V:4] z8 | 
[V:5] B,,8 | 
[V:1] C6D2 | 
[V:2] e6B2 | 
[V:3] A6GF | 
[V:4] E,6F,2 | 
[V:5] A,,8 | 
[V:1] E4F4 | 
[V:2] c4d4 | 
[V:3] E4D4 | 
[V:4] G,4A,4- | 
[V:5] z8 | 
[V:1] A4G4 | 
[V:2] c4B2d2 | 
[V:3] F4G4 | 
[V:4] A,4D,4 | 
[V:5] A,,4B,,4 | 
[V:1] F4G4 | 
[V:2] c2A2B4 | 
[V:3] A2c2B2d2- | 
[V:4] C,4D,4 | 
[V:5] A,,4G,,4 | 
[V:1] z8 | 
[V:2] c4e4- | 
[V:3] dcA2c2B2- | 
[V:4] E,8 | 
[V:5] C,3B,,A,,2G,,2 | 
[V:1] C4D4 | 
[V:2] e4d4 | 
[V:3] B2A4^G2 | 
[V:4] z8 | 
[V:5] C,4B,,4 | 
[V:1] E6F2 | 
[V:2] c8 | 
[V:3] A8 | 
[V:4] E,4A,4 | 
[V:5] A,,8 | 
[V:1] G4F2E2- | 
[V:2] d4c4 | 
[V:3] B4A4 | 
[V:4] D,4A,4- | 
[V:5] G,,4A,,4 | 
[V:1] E2D2D4- | 
[V:2] A8- | 
[V:3] F4D4 | 
[V:4] A,2G,2F,4 | 
[V:5] D,,8 | 
[V:1] D4^C4 | 
[V:2] A8 | 
[V:3] E8 | 
[V:4] z4E,4 | 
[V:5] A,,8 | 
[V:1] D8- | 
[V:2] A8- | 
[V:3] D8- | 
[V:4] F,6G,2 | 
[V:5] D,,8- | 
[V:1] D8- | 
[V:2] A8- | 
[V:3] D8- | 
[V:4] A,8 | 
[V:5] D,,8- | 
[V:1] D8 |]  
[V:2] A8 |]  
[V:3] D8 |]  
[V:4] A,,8 & ^F,8 |]  
[V:5] D,,8 |]  



